flaticon/real-estate/mortgage-4.svg

<svg xmlns="http://www.w3.org/2000/svg" width="32" height="32" viewBox="0 0 24 24">
    <path d="M 22.914062 8.847656 L 13.71875 0.691406 C 12.757812 -0.230469 11.242188 -0.230469 10.28125 0.691406 L 7.203125 3.488281 L 7.203125 2.410156 L 7.601562 2.410156 C 7.839844 2.410156 8 2.25 8 2.007812 L 8 0.410156 C 8 0.171875 7.839844 0.0117188 7.601562 0.0117188 L 2.804688 0.0117188 C 2.5625 0.0117188 2.402344 0.171875 2.402344 0.410156 L 2.402344 2.007812 C 2.402344 2.25 2.5625 2.410156 2.804688 2.410156 L 3.203125 2.410156 L 3.203125 7.007812 L 1.085938 8.847656 C 0.804688 9.125 0.726562 9.527344 0.84375 9.847656 C 0.964844 10.164062 1.324219 10.40625 1.683594 10.40625 L 3.203125 10.40625 L 3.203125 21.601562 L 2.804688 21.601562 C 2.5625 21.601562 2.402344 21.761719 2.402344 22 L 2.402344 23.601562 C 2.402344 23.839844 2.5625 24 2.804688 24 L 21.195312 24 C 21.4375 24 21.597656 23.839844 21.597656 23.558594 L 21.597656 21.960938 C 21.597656 21.722656 21.4375 21.5625 21.195312 21.5625 L 20.796875 21.5625 L 20.796875 10.367188 L 22.316406 10.367188 C 22.714844 10.367188 23.035156 10.164062 23.15625 9.804688 C 23.273438 9.484375 23.195312 9.085938 22.914062 8.847656 Z M 22.394531 9.566406 C 22.355469 9.605469 22.316406 9.605469 22.316406 9.605469 L 20.394531 9.605469 C 20.15625 9.605469 19.996094 9.765625 19.996094 10.003906 L 19.996094 22 C 19.996094 22.242188 20.15625 22.402344 20.394531 22.402344 L 20.796875 22.402344 L 20.796875 23.199219 L 3.203125 23.199219 L 3.203125 22.402344 L 3.601562 22.402344 C 3.84375 22.402344 4.003906 22.242188 4.003906 22 L 4.003906 10.003906 C 4.003906 9.765625 3.84375 9.605469 3.601562 9.605469 L 1.683594 9.605469 C 1.644531 9.605469 1.644531 9.605469 1.605469 9.566406 C 1.605469 9.527344 1.605469 9.484375 1.644531 9.445312 L 3.882812 7.527344 C 3.964844 7.445312 4.003906 7.328125 4.003906 7.207031 L 4.003906 2.007812 C 4.003906 1.769531 3.84375 1.609375 3.601562 1.609375 L 3.203125 1.609375 L 3.203125 0.808594 L 7.203125 0.808594 L 7.203125 1.609375 L 6.800781 1.609375 C 6.5625 1.609375 6.402344 1.769531 6.402344 2.007812 L 6.402344 4.40625 C 6.402344 4.566406 6.480469 4.726562 6.640625 4.847656 C 6.800781 4.886719 6.960938 4.886719 7.082031 4.769531 L 10.839844 1.328125 C 11.480469 0.691406 12.480469 0.691406 13.160156 1.328125 L 22.355469 9.484375 C 22.394531 9.484375 22.4375 9.527344 22.394531 9.566406 Z M 22.394531 9.566406"/>
    <path d="M16.957031 9.566406C16.476562 9.085938 15.679688 9.085938 15.238281 9.566406L6.761719 18.003906C6.324219 18.480469 6.324219 19.242188 6.761719 19.722656 6.960938 19.960938 7.28125 20.082031 7.601562 20.082031 7.921875 20.082031 8.242188 19.960938 8.441406 19.722656L16.957031 11.285156C17.398438 10.804688 17.398438 10.046875 16.957031 9.566406zM16.359375 10.726562L7.882812 19.160156C7.722656 19.320312 7.480469 19.320312 7.320312 19.160156 7.160156 19.003906 7.160156 18.722656 7.320312 18.5625L15.796875 10.125C15.957031 9.964844 16.199219 9.964844 16.359375 10.125 16.519531 10.285156 16.519531 10.566406 16.359375 10.726562zM8.402344 13.203125C9.519531 13.203125 10.402344 12.324219 10.402344 11.207031 10.402344 10.085938 9.519531 9.207031 8.402344 9.207031 7.28125 9.207031 6.402344 10.085938 6.402344 11.207031 6.402344 12.324219 7.28125 13.203125 8.402344 13.203125zM8.402344 10.003906C9.082031 10.003906 9.601562 10.527344 9.601562 11.207031 9.601562 11.886719 9.082031 12.40625 8.402344 12.40625 7.722656 12.40625 7.203125 11.886719 7.203125 11.207031 7.203125 10.527344 7.722656 10.003906 8.402344 10.003906zM15.597656 16.402344C14.480469 16.402344 13.597656 17.28125 13.597656 18.402344 13.597656 19.523438 14.480469 20.402344 15.597656 20.402344 16.71875 20.402344 17.597656 19.523438 17.597656 18.402344 17.597656 17.28125 16.71875 16.402344 15.597656 16.402344zM15.597656 19.601562C14.917969 19.601562 14.398438 19.082031 14.398438 18.402344 14.398438 17.722656 14.917969 17.203125 15.597656 17.203125 16.277344 17.203125 16.796875 17.722656 16.796875 18.402344 16.796875 19.082031 16.277344 19.601562 15.597656 19.601562zM15.597656 19.601562"/>
</svg>

<svg xmlns="http://www.w3.org/2000/svg" width="32" height="32" viewBox="0 0 24 24">
    <path d="M22.914 8.848L13.72.69a2.482 2.482 0 0 0-3.438 0L7.203 3.488V2.41h.399c.238 0 .398-.16.398-.402V.41c0-.238-.16-.398-.398-.398H2.805c-.243 0-.403.16-.403.398v1.598c0 .242.16.402.403.402h.398v4.598l-2.117 1.84a.962.962 0 0 0-.242 1c.12.316.48.558.84.558h1.52v11.196h-.4c-.241 0-.402.16-.402.398v1.602c0 .238.16.398.403.398h18.39c.242 0 .403-.16.403-.441V21.96c0-.238-.16-.398-.403-.398h-.398V10.367h1.52c.398 0 .718-.203.84-.562a.875.875 0 0 0-.243-.957zm-.52.718c-.039.04-.078.04-.078.04h-1.921c-.239 0-.399.16-.399.398V22c0 .242.16.402.399.402h.402v.797H3.203v-.797h.399c.242 0 .402-.16.402-.402V10.004c0-.238-.16-.399-.402-.399H1.684c-.04 0-.04 0-.079-.039 0-.039 0-.082.04-.12l2.238-1.919a.449.449 0 0 0 .12-.32v-5.2c0-.237-.16-.398-.401-.398h-.399v-.8h4v.8h-.402c-.239 0-.399.16-.399.399v2.398c0 .16.078.32.239.442.16.039.32.039.441-.078l3.758-3.442c.64-.637 1.64-.637 2.32 0l9.195 8.156c.04 0 .082.043.04.082zm0 0"/>
    <path d="M16.957 9.566c-.48-.48-1.277-.48-1.719 0l-8.476 8.438a1.29 1.29 0 0 0 0 1.719c.199.238.52.359.84.359.32 0 .64-.121.84-.36l8.515-8.437a1.28 1.28 0 0 0 0-1.719zm-.598 1.16L7.883 19.16a.39.39 0 0 1-.563 0 .432.432 0 0 1 0-.598l8.477-8.437a.39.39 0 0 1 .562 0c.16.16.16.441 0 .602zm0 0M8.402 13.203c1.118 0 2-.879 2-1.996 0-1.121-.882-2-2-2-1.12 0-2 .879-2 2 0 1.117.88 1.996 2 1.996zm0-3.2c.68 0 1.2.524 1.2 1.204 0 .68-.52 1.2-1.2 1.2-.68 0-1.199-.52-1.199-1.2 0-.68.52-1.203 1.2-1.203zm0 0M15.598 16.402c-1.118 0-2 .88-2 2 0 1.121.882 2 2 2 1.12 0 2-.879 2-2 0-1.12-.88-2-2-2zm0 3.2c-.68 0-1.2-.52-1.2-1.2 0-.68.52-1.199 1.2-1.199.68 0 1.199.52 1.199 1.2 0 .679-.52 1.199-1.2 1.199zm0 0"/>
</svg>
